svg/fluentui-system-icons/ic_fluent_status_16_filled.svg

<svg width="16" height="16" viewBox="0 0 16 16" fill="none" xmlns="http://www.w3.org/2000/svg">
<path d="M14.3536 1.64663C13.4679 0.761016 12.0321 0.761019 11.1465 1.64664L6.89646 5.89664C6.84157 5.95152 6.80022 6.01844 6.77567 6.09207L5.52567 9.84207C5.46578 10.0217 5.51254 10.2198 5.64646 10.3537C5.78038 10.4877 5.97846 10.5344 6.15813 10.4745L9.90813 9.22453C9.98177 9.19998 10.0487 9.15863 10.1036 9.10374L14.3536 4.85374C15.2392 3.96813 15.2392 2.53225 14.3536 1.64663ZM12.9868 7.63468C12.9956 7.7554 13 7.8773 13 8.00024C13 10.7617 10.7614 13.0002 8 13.0002C5.23858 13.0002 3 10.7617 3 8.00024C3 5.23882 5.23858 3.00024 8 3.00024C8.12291 3.00024 8.24479 3.00468 8.36548 3.0134L9.24855 2.13033C8.8458 2.04509 8.42814 2.00024 8 2.00024C4.68629 2.00024 2 4.68654 2 8.00024C2 11.314 4.68629 14.0002 8 14.0002C11.3137 14.0002 14 11.314 14 8.00024C14 7.57208 13.9552 7.15439 13.8699 6.75162L12.9868 7.63468Z" fill="#212121"/>
</svg>

<svg xmlns="http://www.w3.org/2000/svg" width="16" height="16"><path d="M14.354 1.647a2.268 2.268 0 0 0-3.207 0l-4.25 4.25a.5.5 0 0 0-.121.195l-1.25 3.75a.5.5 0 0 0 .632.633l3.75-1.25a.5.5 0 0 0 .196-.121l4.25-4.25a2.268 2.268 0 0 0 0-3.207Zm-1.367 5.988a5 5 0 1 1-4.621-4.621l.883-.884a6 6 0 1 0 4.621 4.621l-.883.884Z"/></svg>
